!!!SOCIAL_FUNCTION:	songs of principal social dances with corn dance
!!!PDT:	1956
!!!OTL: No_76_Lizard_Dance_Song_(a).krn
!!!LANG: Non-Tone
!!!LING_GROUP: Muskogean
!!!REG: Florida
**kern
*staff1
=1-
*clefF4
*k[b-]
*M2/4
8.c\L
16A\Jk
8A\
8r
=2
8c\L
8A\J
8.c\L
16c\Jk
=3
(12A\L
12G\)
12F\J
8F\
8r
=4
8.F\L
16F\Jk
8.A\L
16c\Jk
=5
12A\L
12G\
12F\J
4F;\
=6
=
*M3/4
4..c;\
16c\
8.A\L
16A\Jk
=7||
*M2/4
(8.G\L
16F\Jk)
8F\
8r
=8
4r
8D/L
8C/J
=9
4F\
4F\
=10
16F\LK
8.A\J
8c\L
16B-\L
16A\JJ
=11
16A\LL
16A\J
8A\J
4A\
=12||
*M3/4
4r
8D/L
8C/J
4F\
==:|!
*-
